kiosk-igrinskij/images/7165bfb003eb6b672a499a94868b97c4.svg

<svg fill="none" height="16" viewBox="0 0 16 16" width="16" xmlns="http://www.w3.org/2000/svg"><path d="m14.6067 3.32308h-9.70226v-1.26594c0-.29131-.23868-.52747-.53309-.52747h-3.30517v-1.52967h-1.06618v16h1.06618v-2.6198h13.00742v2.6198h1.0662v-12.14945c-.0092-.28743-.2426-.51834-.5331-.52747zm-.5331 7.03292h-9.16916v-1.26589c.00999-.28142-.21248-.51758-.49693-.52747-.01204-.00042-.02412-.00042-.03616 0h-3.30517v-2.21539h13.00742z" fill="#f1e9dd"/></svg>

<svg width="16" height="16" viewBox="0 0 16 16" fill="none" xmlns="http://www.w3.org/2000/svg">
<path d="M14.6067 3.32308H4.90444V2.05714C4.90444 1.76583 4.66576 1.52967 4.37135 1.52967H1.06618V0H0V16H1.06618V13.3802H14.0736V16H15.1398V3.85055C15.1306 3.56312 14.8972 3.33221 14.6067 3.32308ZM14.0736 10.356H4.90444V9.09011C4.91443 8.80869 4.69196 8.57253 4.40751 8.56264C4.39547 8.56222 4.38339 8.56222 4.37135 8.56264H1.06618V6.34725H14.0736V10.356Z" fill="#F1E9DD"/>
</svg>
